Numix-GalliumOS/16/mimetypes/application-x-mono-develop.svg

<?xml version="1.0" encoding="UTF-8" standalone="no"?>
<svg
   xmlns:dc="http://purl.org/dc/elements/1.1/"
   xmlns:cc="http://creativecommons.org/ns#"
   xmlns:rdf="http://www.w3.org/1999/02/22-rdf-syntax-ns#"
   xmlns:svg="http://www.w3.org/2000/svg"
   xmlns="http://www.w3.org/2000/svg"
   xmlns:sodipodi="http://sodipodi.sourceforge.net/DTD/sodipodi-0.dtd"
   xmlns:inkscape="http://www.inkscape.org/namespaces/inkscape"
   width="16"
   height="16"
   viewBox="0 0 16 16"
   id="svg2"
   version="1.1"
   inkscape:version="0.48.5 r10040"
   sodipodi:docname="application-x-mono-develop.svg">
  <metadata
     id="metadata16">
    <rdf:RDF>
      <cc:Work
         rdf:about="">
        <dc:format>image/svg+xml</dc:format>
        <dc:type
           rdf:resource="http://purl.org/dc/dcmitype/StillImage" />
      </cc:Work>
    </rdf:RDF>
  </metadata>
  <defs
     id="defs14">
    <clipPath
       id="clipPath-902001221">
      <g
         transform="translate(0,-1004.3622)"
         id="g12">
        <path
           style="fill:#1890d0"
           inkscape:connector-curvature="0"
           d="m -24,13 c 0,1.105 -0.672,2 -1.5,2 -0.828,0 -1.5,-0.895 -1.5,-2 0,-1.105 0.672,-2 1.5,-2 0.828,0 1.5,0.895 1.5,2 z"
           transform="matrix(15.333333,0,0,11.5,414.99999,878.8622)"
           id="path14" />
      </g>
    </clipPath>
  </defs>
  <sodipodi:namedview
     pagecolor="#ffffff"
     bordercolor="#666666"
     borderopacity="1"
     objecttolerance="10"
     gridtolerance="10"
     guidetolerance="10"
     inkscape:pageopacity="0"
     inkscape:pageshadow="2"
     inkscape:window-width="1280"
     inkscape:window-height="970"
     id="namedview12"
     showgrid="true"
     inkscape:zoom="29.5"
     inkscape:cx="5.0925962"
     inkscape:cy="8.8880006"
     inkscape:window-x="0"
     inkscape:window-y="0"
     inkscape:window-maximized="1"
     inkscape:current-layer="svg2">
    <inkscape:grid
       type="xygrid"
       id="grid3028" />
  </sodipodi:namedview>
  <path
     style="fill:#678bb8;fill-opacity:1"
     d="M 2.667969,-4.462e-4 C 2.324219,-4.462e-4 2,0.3378118 2,0.6964465 L 2,15.303108 C 2,15.641365 2.34375,16 2.667969,16 l 10.664062,0 C 13.65625,16 14,15.641365 14,15.303108 L 14,3.9995536 10,-4.462e-4 z"
     id="path4"
     inkscape:connector-curvature="0"
     sodipodi:nodetypes="ssssssccs" />
  <path
     style="fill:#000000;fill-opacity:0.19599998"
     d="m 10.583223,3.3315846 0.0154,0.01953 0.04005,-0.01953 z m 0.02978,0.667969 3.387,3.664062 0,-3.664062 z"
     id="path6"
     inkscape:connector-curvature="0"
     sodipodi:nodetypes="cccccccc" />
  <path
     style="fill:#ffffff;fill-opacity:0.39200003"
     d="m 10,-4.462e-4 3.996396,3.9999998 -3.383784,0 C 10.313513,3.9995536 10,3.6824366 10,3.3833376 z"
     id="path8"
     inkscape:connector-curvature="0"
     sodipodi:nodetypes="ccssc" />
  <path
     style="fill:#ffffff;fill-opacity:1;fill-rule:nonzero;stroke:none"
     d="m 6.2193832,4.7318532 c -1.31721,0 -2.9740172,1.2458317 -2.9594415,3.1742392 0.013663,1.865997 0.6351943,2.8772986 1.1097906,4.0214986 L 5.7778537,11.342863 C 5.455383,10.685287 5.0322543,10.033633 4.8828613,9.7080105 4.4638319,8.7962679 4.3222744,8.3850511 4.3577991,7.6912943 4.3905935,7.0201506 4.6143181,6.6095565 5.0260601,6.2115739 5.4359801,5.8163044 6.0061335,5.6163096 6.6847792,5.7103782 c 0.977811,0.1340462 1.4944313,0.6818439 1.7422519,1.1813895 0.1401943,-0.019372 0.2833212,-0.036651 0.4415295,-0.0358 0.1238262,8.783e-4 0.247847,0.00959 0.3699302,0.0358 C 8.9750364,5.8534608 7.6793623,4.7318532 6.2193832,4.7318532 z M 6.8160448,6.5457044 C 6.2172627,6.505934 5.3427929,6.7986698 5.3482573,7.7151607 5.3517285,8.5824527 5.895405,9.2321284 6.5415804,9.4932123 6.5275469,9.2748147 6.5426879,9.0325459 6.5773801,8.7891515 6.2268841,8.5985845 6.0143764,8.2600153 5.9807186,7.7867601 5.9406378,7.261242 6.4626027,6.7305285 7.293374,6.9991668 7.4272817,7.0425835 7.4317449,6.8110116 7.2814404,6.6889031 7.1837422,6.6113421 7.0156383,6.5589611 6.8160444,6.5457044 z m 2.0525158,0.6921271 c -0.1051136,-5.728e-4 -0.204581,0.00352 -0.2983307,0.011934 0.024638,0.093535 0.041918,0.1868824 0.047733,0.2625311 0.060642,-0.00378 0.1263006,-0.00306 0.1909317,0 0.1762953,0.00812 0.3394442,0.0369 0.4892625,0.083533 0.00577,-0.098363 0.00272,-0.1927391 0,-0.2863975 C 9.1561837,7.2651443 9.0115335,7.2388576 8.8685611,7.2378323 z M 8.5821631,7.882226 c -0.093248,0.4040875 -0.3771433,0.8994361 -0.9546585,1.0381912 -0.013976,0.083314 -0.027288,0.1621835 -0.023866,0.2147981 0.00726,0.1104521 0.030289,0.2642591 0.095465,0.4295964 0.98941,-0.1819466 1.4152172,-0.876322 1.5513202,-1.5871199 -0.1321855,-0.052672 -0.2835542,-0.087092 -0.465396,-0.095466 -0.070595,-0.00336 -0.1410734,-0.006 -0.202865,0 z M 6.9473103,8.9323503 c -0.020548,0.18444 -0.035292,0.3675608 -0.023866,0.5369954 0.00263,0.03971 0.00521,0.078236 0.011934,0.1193324 0.073622,0.010906 0.1411188,0.035196 0.2147981,0.0358 0.061863,3.028e-4 0.1204341,-0.00903 0.1789985,-0.011934 -0.058223,-0.1643467 -0.09868,-0.3208615 -0.1073999,-0.4534624 -0.0037,-0.057197 -0.00525,-0.1240763 0,-0.1909318 -0.095607,-0.00483 -0.1895661,-0.018856 -0.2744643,-0.0358 z"
     id="path55"
     inkscape:connector-curvature="0" />
  <path
     id="path57"
     stroke-miterlimit="4"
     d="m 11.652228,4.73774 c 0.475507,1.1423918 1.106785,2.1491074 1.120448,4.0169132 0.01457,1.9284078 -1.651523,3.1757218 -2.9687325,3.1757218 -1.5941339,0 -2.9969717,-1.33686 -3.0698466,-2.4430717 C 6.666688,8.4878235 7.0246847,7.0351861 8.8729693,7.0451359 9.7556638,7.051471 10.672974,7.8130617 10.677529,8.9473129 10.683905,10.170206 9.1380509,10.291409 8.7490821,9.979355 8.598778,9.8581511 8.6033329,9.6184569 8.735419,9.6618733 9.5680122,9.9305116 10.080868,9.4004706 10.04352,8.8740478 9.9915965,8.1576789 9.5643685,7.7325607 8.7982734,7.6972849 7.6933107,7.6448237 7.3845042,8.711237 7.4127434,9.1454 7.4473597,9.6718228 7.9092021,10.754517 9.3475663,10.9517 10.026212,11.045764 10.59008,10.84406 11,10.447889 11.40992,10.050811 11.643119,9.6419741 11.675913,8.97083 11.710528,8.2770735 11.558402,7.8700456 11.140283,6.9583031 10.99089,6.6317768 10.573683,5.9769139 10.249391,5.3193379 L 11.653139,4.73774 m -0.0018,0"
     inkscape:connector-curvature="0"
     style="fill:#a9c1e3;fill-opacity:1;fill-rule:nonzero;stroke:none" />
</svg>

<svg xmlns="http://www.w3.org/2000/svg" viewBox="0 0 16 16">
 <defs>
  
 </defs>
 <path d="m 2.668 0 c -0.344 0 -0.668 0.338 -0.668 0.697 l 0 14.607 c 0 0.338 0.344 0.697 0.668 0.697 l 10.664 0 c 0.324 0 0.668 -0.359 0.668 -0.697 l 0 -11.304 -4 -4 z" style="fill:#678bb8;fill-opacity:1"/>
 <path d="m 10.583 3.332 0.015 0.02 0.04 -0.02 z m 0.03 0.668 3.387 3.664 0 -3.664 z" style="fill:#000;fill-opacity:0.196"/>
 <path d="m 10 0 3.996 4 -3.384 0 c -0.299 0 -0.613 -0.317 -0.613 -0.616 z" style="fill:#fff;fill-opacity:0.392"/>
 <path d="m 6.219 4.732 c -1.317 0 -2.974 1.246 -2.959 3.174 0.014 1.866 0.635 2.877 1.11 4.02 l 1.408 -0.585 c -0.322 -0.658 -0.746 -1.309 -0.895 -1.635 -0.419 -0.912 -0.561 -1.323 -0.525 -2.02 0.033 -0.671 0.257 -1.082 0.668 -1.48 0.41 -0.395 0.98 -0.595 1.659 -0.501 c 0.978 0.134 1.494 0.682 1.742 1.181 0.14 -0.019 0.283 -0.037 0.442 -0.036 0.124 0.001 0.248 0.01 0.37 0.036 c -0.263 -1.038 -1.559 -2.16 -3.02 -2.16 z m 0.597 1.814 c -0.599 -0.04 -1.473 0.253 -1.468 1.169 0.003 0.867 0.547 1.517 1.193 1.778 -0.014 -0.218 0.001 -0.461 0.036 -0.704 -0.35 -0.191 -0.563 -0.529 -0.597 -1 -0.04 -0.526 0.482 -1.056 1.313 -0.788 0.134 0.043 0.138 -0.188 -0.012 -0.31 -0.098 -0.078 -0.266 -0.13 -0.465 -0.143 z m 2.053 0.692 c -0.105 -0.001 -0.205 0.004 -0.298 0.012 0.025 0.094 0.042 0.187 0.048 0.263 0.061 -0.004 0.126 -0.003 0.191 0 0.176 0.008 0.339 0.037 0.489 0.084 0.006 -0.098 0.003 -0.193 0 -0.286 c -0.142 -0.044 -0.287 -0.071 -0.43 -0.072 z m -0.286 0.644 c -0.093 0.404 -0.377 0.899 -0.955 1.038 -0.014 0.083 -0.027 0.162 -0.024 0.215 0.007 0.11 0.03 0.264 0.095 0.43 0.989 -0.182 1.415 -0.876 1.551 -1.587 -0.132 -0.053 -0.284 -0.087 -0.465 -0.095 -0.071 -0.003 -0.141 -0.006 -0.203 0 z m -1.635 1.05 c -0.021 0.184 -0.035 0.368 -0.024 0.537 0.003 0.04 0.005 0.078 0.012 0.119 0.074 0.011 0.141 0.035 0.215 0.036 0.062 0 0.12 -0.009 0.179 -0.012 -0.058 -0.164 -0.099 -0.321 -0.107 -0.453 -0.004 -0.057 -0.005 -0.124 0 -0.191 -0.096 -0.005 -0.19 -0.019 -0.274 -0.036 z" style="fill:#fff;fill-opacity:1;stroke:none;fill-rule:nonzero"/>
 <path d="m 11.652 4.738 c 0.476 1.142 1.107 2.149 1.12 4.02 0.015 1.928 -1.652 3.176 -2.969 3.176 -1.594 0 -2.997 -1.337 -3.07 -2.443 c -0.067 -0.999 0.291 -2.452 2.139 -2.442 0.883 0.006 1.8 0.768 1.805 1.902 0.006 1.223 -1.539 1.344 -1.928 1.032 -0.15 -0.121 -0.146 -0.361 -0.014 -0.317 0.833 0.269 1.345 -0.261 1.308 -0.788 -0.052 -0.716 -0.479 -1.141 -1.245 -1.177 -1.105 -0.052 -1.414 1.014 -1.386 1.448 0.035 0.526 0.496 1.609 1.935 1.806 0.679 0.094 1.243 -0.108 1.652 -0.504 0.41 -0.397 0.643 -0.806 0.676 -1.477 0.035 -0.694 -0.118 -1.101 -0.536 -2.01 -0.149 -0.327 -0.567 -0.981 -0.891 -1.639 l 1.404 -0.582 m -0.002 0" style="fill:#a9c1e3;fill-opacity:1;stroke:none;fill-rule:nonzero"/>
</svg>
